X:127
T:Saddle The Pony
R:jig
M:6/8
L:1/8
K:G
GBA G2B | def gdB | GBA G2B | AFD AFD |
GBA G2B | def gfg | ege dBG | AGF G3 :||
e3 edB | def gfg | e3 edB | dBA ABd |
e3 edB | def gfg | ege dBG | AGF G3 :||

